svgs/light/tv-music.svg

<svg xmlns="http://www.w3.org/2000/svg" viewBox="0 0 640 512"><!-- Font Awesome Pro 6.0.0-alpha2 by @fontawesome - https://fontawesome.com License - https://fontawesome.com/license (Commercial License) --><path d="M402.25 101.75C393.625 95.75 382.625 94.312 372.75 98.062L276.75 134.062C264.344 138.719 256 150.75 256 164.031V237.752C248.697 234.756 240.621 232.938 232 232.938C201.125 232.938 176 254.469 176 280.938S201.125 328.938 232 328.938S288 307.406 288 280.938V164L384 128.031V205.752C376.697 202.756 368.621 200.938 360 200.938C329.125 200.938 304 222.469 304 248.938S329.125 296.938 360 296.938S416 275.406 416 248.938V128.031C416 117.531 410.844 107.719 402.25 101.75ZM232 296.938C219.219 296.938 208 289.469 208 280.938S219.219 264.938 232 264.938S256 272.406 256 280.938S244.781 296.938 232 296.938ZM360 264.938C347.219 264.938 336 257.469 336 248.938S347.219 232.938 360 232.938S384 240.406 384 248.938S372.781 264.938 360 264.938ZM528 480H112C103.164 480 96 487.162 96 496C96 504.836 103.164 512 112 512H528C536.838 512 544 504.836 544 496C544 487.162 536.838 480 528 480ZM576 0H64C28.654 0 0 28.654 0 64V384C0 419.346 28.654 448 64 448H576C611.348 448 640 419.346 640 384V64C640 28.654 611.348 0 576 0ZM608 384C608 401.645 593.645 416 576 416H64C46.355 416 32 401.645 32 384V64C32 46.355 46.355 32 64 32H576C593.645 32 608 46.355 608 64V384Z"/></svg>

<svg xmlns="http://www.w3.org/2000/svg" viewBox="0 0 640 512"><!--! Font Awesome Pro 6.3.0 by @fontawesome - https://fontawesome.com License - https://fontawesome.com/license (Commercial License) Copyright 2023 Fonticons, Inc. --><path d="M402.3 101.8c-8.625-6-19.62-7.438-29.5-3.688l-96 36C264.3 138.7 256 150.8 256 164v73.72C248.7 234.8 240.6 232.9 232 232.9c-30.88 0-56 21.53-56 48s25.12 48 56 48s56-21.53 56-48V164l96-35.97v77.72c-7.303-2.996-15.38-4.814-24-4.814c-30.88 0-56 21.53-56 48s25.12 48 56 48s56-21.53 56-48V128C416 117.5 410.8 107.7 402.3 101.8zM232 296.9c-12.78 0-24-7.469-24-16s11.22-16 24-16s24 7.469 24 16S244.8 296.9 232 296.9zM360 264.9c-12.78 0-24-7.469-24-16s11.22-16 24-16s24 7.469 24 16S372.8 264.9 360 264.9zM528 480h-416C103.2 480 96 487.2 96 496C96 504.8 103.2 512 112 512h416c8.838 0 16-7.164 16-16C544 487.2 536.8 480 528 480zM576 0H64C28.65 0 0 28.65 0 64v320c0 35.35 28.65 64 64 64h512c35.35 0 64-28.65 64-64V64C640 28.65 611.3 0 576 0zM608 384c0 17.64-14.36 32-32 32H64c-17.64 0-32-14.36-32-32V64c0-17.64 14.36-32 32-32h512c17.64 0 32 14.36 32 32V384z"/></svg>
